X:1
T:[ID 1-22]
T:[ID 1-22]
T:Bezeichnung standardisiert: Menuett Men\"uet \"Ahnlich in anderer Quelle: 173. Menu\´uet - Hs. Bolhuis 1730 ca. (Anm. S. Wascher);
T:Urheber unbekannt Erstbeleg: 1730 (Datum in der schriftlichen Quelle) Datum in der hier transkribierten schriftlichen Quelle: vermutlich vor 1767
C:Urheber unbekannt
C:Erstbeleg: 1730 (Datum in der schriftlichen Quelle)
C:Datum in der hier transkribierten schriftlichen Quelle: vermutlich vor 1767
L:1/8
M:4/4
K:Dmin
V:1 treble 
V:1
 d4 ^c2 | defed^c | d4 ^c2 | defed^c | d2 a2 g2 | f4 e2 | d2 dfed | ^c2"^?" Bc A2 | d4 ^c2 | %9
 defed^c | d4 ^c2 | defed^c | d2 a2 g2 | f4 e2 | defed^c | d6 :: f4 e2 | fgagfe | f4 e2 | fgagfe | %20
 F2 FGAB | c2 BA B2 | AG G2 FE | F6 | a2 gfed | b4 g2 | a2 gfed | ^c2 Bc A2 | d4 ^c2 | defed^c | %30
 d4 ^c2 | defed^c | d2 a2 g2 | Tf4 e2 | defed^c | d6 :| %36

